X: 1571
T: Pençgâh-ı Zâid Seyir
C: Şefik Gürmeriç
O: Turkey
F: http://compmusic.upf.edu/node/140
N: pencgahizaid--seyir--sofyan--1--sefik_gurmeric
N: makam= pencgahizaid
N: form= seyir
N: usul= sofyan = 4/4
M: 4/4
L: 1/16
K: C _1/4B ^f  
Q: 1/4=60
%%MIDI tuningsystem comma53
d6^c2 =B4 c4  | d8 ^c2B2 A4  | =B2^c2 B4 c2d2 c4  | \
w:   |   |   | 
d8 ^c2d2 e4  | g4 f2e2 e2d2 d2^c2  | 
w:   |   | 
=B8 A2B2 G4  | A4 g4 f3e d4  | ^c2d2 e2d2 d8  | \
w:   |   |   | 
z4 d4 c4 d4  | e8 e2f2 g2a2  | 
w:   |   | 
g4 =f2e2 d4 e4  | d2c2 c2B2 _2/4B8  | \
w:   |   | 
A2_2/4B2 c2e2 d4 c2B2  | _2/4B3A G2A2 G4 A2B2  | 
w:   |   | 
c4 B2A2 A2G2 G2F2  | F16  | |


